X: 1
T: the Lark in the Morning
M: 6/8
R: jig
K: D
|: "D"AFA AFA |  "G"BGB    BdB | "D"AFA    Ade |  "D"fed "G"BdB \
|  "D"AFA AFA |  "G"BGB    BdB | "D"def    afe |  "D"fed "G"BdB :|
|: "D"def a2a |  "D"baf    afe | "D"def    afe |  "D"fed "G"BAB \
|  "D"def aba |  "D"baf    a2f | "G"gag "D"faf | "Em"edB "A"BAB :|
|: "D"d2f fdf |  "D"fdf    fed | "D"A2f    fdf |  "G"edB "A"BAB \
|  "D"d2f fdf |  "D"fdf    fdf | "G"gag "D"faf | "Em"edB "A"BAB :|
|: "D"Add fdd | "Em"ede "A"fdB | "D"Add    fdd | "Em"edB "A"BAB \
|  "D"Add fdd | "Em"ede "D"fed | "G"gag "D"faf | "Em"edB "A"BAB :|
